src/icons/sport.svg

<svg width="23" height="23" viewBox="0 0 23 23" fill="none" xmlns="http://www.w3.org/2000/svg">
<path d="M13.0625 20.9646C13.0625 20.574 12.9073 20.199 12.6313 19.9229L3.07708 10.3687C2.80104 10.0927 2.42604 9.9375 2.03542 9.9375C1.22187 9.9375 0.5625 10.5969 0.5625 11.4104C0.5625 11.801 0.717708 12.176 0.99375 12.4521L10.5474 22.0057C10.8234 22.2818 11.1984 22.437 11.5891 22.437C12.4031 22.4375 13.0625 21.7781 13.0625 20.9646Z" stroke="#5051F9" stroke-miterlimit="10"/>
<path d="M3.07708 14.5354C2.80104 14.2594 2.42604 14.1042 2.03542 14.1042C1.22188 14.1042 0.5625 14.7635 0.5625 15.5771C0.5625 15.9677 0.717708 16.3427 0.99375 16.6187L6.38073 22.0057C6.65677 22.2818 7.03177 22.437 7.4224 22.437C8.23646 22.4375 8.89583 21.7781 8.89583 20.9646C8.89583 20.5739 8.74063 20.1989 8.46458 19.9229" stroke="#5051F9" stroke-miterlimit="10"/>
<path d="M2.64583 18.2708L1.08333 19.8333L3.16666 21.9167L4.72916 20.3542" stroke="#5051F9" stroke-miterlimit="10"/>
<path d="M9.9375 2.03542C9.9375 2.42604 10.0927 2.80104 10.3687 3.07708L19.9224 12.6307C20.1984 12.9068 20.5734 13.062 20.9641 13.062C21.7781 13.0625 22.4375 12.4031 22.4375 11.5896C22.4375 11.199 22.2823 10.824 22.0063 10.5479L12.4521 0.99375C12.176 0.717708 11.801 0.5625 11.4104 0.5625C10.5969 0.5625 9.9375 1.22187 9.9375 2.03542V2.03542Z" stroke="#5051F9" stroke-miterlimit="10"/>
<path d="M19.9229 8.46458C20.199 8.74063 20.574 8.89583 20.9646 8.89583C21.7781 8.89583 22.4375 8.23646 22.4375 7.42292C22.4375 7.03229 22.2823 6.65729 22.0063 6.38125L16.6188 0.99375C16.3427 0.717708 15.9677 0.5625 15.5771 0.5625C14.7635 0.5625 14.1042 1.22188 14.1042 2.03542C14.1042 2.42604 14.2594 2.80104 14.5354 3.07708" stroke="#5051F9" stroke-miterlimit="10"/>
<path d="M20.3542 4.72918L21.9167 3.16668L19.8333 1.08334L18.2708 2.64584" stroke="#5051F9" stroke-miterlimit="10"/>
<path d="M6.8125 14.1042L14.1042 6.8125" stroke="#5051F9" stroke-miterlimit="10"/>
<path d="M8.89583 16.1875L16.1875 8.89584" stroke="#5051F9" stroke-miterlimit="10"/>
</svg>

<?xml version="1.0" encoding="utf-8"?>
<!-- Generator: Adobe Illustrator 24.1.2, SVG Export Plug-In . SVG Version: 6.00 Build 0)  -->
<svg version="1.1" id="Layer_1" xmlns="http://www.w3.org/2000/svg" xmlns:xlink="http://www.w3.org/1999/xlink" x="0px" y="0px"
	 viewBox="0 0 23 23" style="enable-background:new 0 0 23 23;" xml:space="preserve">
<style type="text/css">
	.st0{fill:none;stroke:#5051F9;stroke-miterlimit:10;}
</style>
<path class="st0" d="M13.1,21c0-0.4-0.2-0.8-0.4-1l-9.6-9.6c-0.3-0.3-0.7-0.4-1-0.4c-0.8,0-1.5,0.7-1.5,1.5c0,0.4,0.2,0.8,0.4,1
	l9.6,9.6c0.3,0.3,0.7,0.4,1,0.4C12.4,22.4,13.1,21.8,13.1,21z"/>
<path class="st0" d="M3.1,14.5c-0.3-0.3-0.7-0.4-1-0.4c-0.8,0-1.5,0.7-1.5,1.5c0,0.4,0.2,0.8,0.4,1L6.4,22c0.3,0.3,0.7,0.4,1,0.4
	c0.8,0,1.5-0.7,1.5-1.5c0-0.4-0.2-0.8-0.4-1"/>
<path class="st0" d="M2.6,18.3l-1.6,1.6l2.1,2.1l1.6-1.6"/>
<path class="st0" d="M9.9,2c0,0.4,0.2,0.8,0.4,1l9.6,9.6c0.3,0.3,0.7,0.4,1,0.4c0.8,0,1.5-0.7,1.5-1.5c0-0.4-0.2-0.8-0.4-1L12.5,1
	c-0.3-0.3-0.7-0.4-1-0.4C10.6,0.6,9.9,1.2,9.9,2L9.9,2z"/>
<path class="st0" d="M19.9,8.5c0.3,0.3,0.7,0.4,1,0.4c0.8,0,1.5-0.7,1.5-1.5c0-0.4-0.2-0.8-0.4-1L16.6,1c-0.3-0.3-0.7-0.4-1-0.4
	c-0.8,0-1.5,0.7-1.5,1.5c0,0.4,0.2,0.8,0.4,1"/>
<path class="st0" d="M20.4,4.7l1.6-1.6l-2.1-2.1l-1.6,1.6"/>
<path class="st0" d="M6.8,14.1l7.3-7.3"/>
<path class="st0" d="M8.9,16.2l7.3-7.3"/>
</svg>
